papirus/16x16/mimetypes/image-x-svg+xml.svg

<?xml version="1.0" encoding="UTF-8" standalone="no"?>
<svg
   xmlns:dc="http://purl.org/dc/elements/1.1/"
   xmlns:cc="http://creativecommons.org/ns#"
   xmlns:rdf="http://www.w3.org/1999/02/22-rdf-syntax-ns#"
   xmlns:svg="http://www.w3.org/2000/svg"
   xmlns="http://www.w3.org/2000/svg"
   xmlns:sodipodi="http://sodipodi.sourceforge.net/DTD/sodipodi-0.dtd"
   xmlns:inkscape="http://www.inkscape.org/namespaces/inkscape"
   id="svg2"
   height="16px"
   width="16px"
   version="1.1"
   viewBox="0 0 16 16"
   inkscape:version="0.91 r"
   sodipodi:docname="image-x-svg+xml.svg">
  <defs
     id="defs18" />
  <sodipodi:namedview
     pagecolor="#ffffff"
     bordercolor="#666666"
     borderopacity="1"
     objecttolerance="10"
     gridtolerance="10"
     guidetolerance="10"
     inkscape:pageopacity="0"
     inkscape:pageshadow="2"
     inkscape:window-width="1535"
     inkscape:window-height="876"
     id="namedview16"
     showgrid="false"
     inkscape:zoom="17.31"
     inkscape:cx="-3.9322034"
     inkscape:cy="8"
     inkscape:window-x="65"
     inkscape:window-y="24"
     inkscape:window-maximized="1"
     inkscape:current-layer="svg2" />
  <metadata
     id="metadata31">
    <rdf:RDF>
      <cc:Work
         rdf:about="">
        <dc:format>image/svg+xml</dc:format>
        <dc:type
           rdf:resource="http://purl.org/dc/dcmitype/StillImage" />
        <dc:title></dc:title>
      </cc:Work>
    </rdf:RDF>
  </metadata>
  <path
     style="fill:#bd9966"
     inkscape:connector-curvature="0"
     d="M 14,13.332 14,2.668 C 14,2.2969 13.711,2 13.352,2 L 1.648,2 C 1.2891,2 1,2.2969 1,2.668 L 1,13.332 C 1,13.703 1.2891,14 1.6484,14 l 11.703,0 c 0.36,0 0.649,-0.297 0.649,-0.668 z"
     id="path5" />
  <path
     style="fill:#ffffff"
     inkscape:connector-curvature="0"
     d="M 4,8 C 4,8.55312 3.55312,9 3,9 2.44688,9 2,8.55312 2,8 2,7.44688 2.44688,7 3,7 3.553128,7 4,7.446872 4,8 Z"
     id="path17" />
  <path
     style="fill:none;stroke:#ffffff;stroke-width:0.5;stroke-miterlimit:4;stroke-dasharray:none"
     inkscape:connector-curvature="0"
     d="m 3,8 3,3 5,-1"
     id="path19"
     sodipodi:nodetypes="ccc" />
  <path
     style="fill:#ffffff;fill-opacity:0.10196001"
     inkscape:connector-curvature="0"
     d="M 1.6484,2 C 1.2891,2 1,2.2969 1,2.668 l 0,0.5 C 1,2.7969 1.2891,2.5 1.6484,2.5 l 11.703,0 c 0.36,0 0.649,0.2969 0.649,0.668 l 0,-0.5 C 14.0004,2.2969 13.7114,2 13.3524,2 Z"
     id="path21" />
  <path
     style="fill:#ffffff"
     inkscape:connector-curvature="0"
     d="m 12,10.25 c 0,0.553128 -0.446872,1 -1,1 -0.553128,0 -1,-0.446872 -1,-1 0,-0.553128 0.446872,-1 1,-1 0.553128,0 1,0.446872 1,1 z"
     id="path23" />
  <path
     style="fill:#ffffff"
     inkscape:connector-curvature="0"
     d="m 7,11 c 0,0.5528 -0.44688,1 -1,1 -0.55312,0 -1,-0.4472 -1,-1 0,-0.5528 0.44688,-1 1,-1 0.553128,0 1,0.446872 1,1 z"
     id="path25" />
</svg>

<?xml version="1.0" encoding="UTF-8" standalone="no"?>
<svg id="svg2" xmlns:rdf="http://www.w3.org/1999/02/22-rdf-syntax-ns#" xmlns="http://www.w3.org/2000/svg" height="16px" width="16px" version="1.1" xmlns:cc="http://creativecommons.org/ns#" viewBox="0 0 16 16" xmlns:dc="http://purl.org/dc/elements/1.1/">
 <metadata id="metadata31">
  <rdf:RDF>
   <cc:Work rdf:about="">
    <dc:format>image/svg+xml</dc:format>
    <dc:type rdf:resource="http://purl.org/dc/dcmitype/StillImage"/>
    <dc:title/>
   </cc:Work>
  </rdf:RDF>
 </metadata>
 <path id="path5" fill="#bd9966" d="m14 13.332v-10.664c0-0.3711-0.289-0.668-0.648-0.668h-11.704c-0.3589 0-0.648 0.2969-0.648 0.668v10.664c0 0.371 0.2891 0.668 0.6484 0.668h11.703c0.36 0 0.649-0.297 0.649-0.668z"/>
 <path id="path17" fill="#fff" d="m4 8c0 0.5531-0.4469 1-1 1s-1-0.4469-1-1 0.4469-1 1-1 1 0.4469 1 1z"/>
 <path id="path19" d="m3 8 3 3 5-1" stroke="#fff" stroke-width=".5" fill="none"/>
 <path id="path21" fill-opacity=".10196" fill="#fff" d="m1.6484 2c-0.3593 0-0.6484 0.2969-0.6484 0.668v0.5c0-0.3711 0.2891-0.668 0.6484-0.668h11.703c0.36 0 0.649 0.2969 0.649 0.668v-0.5c0-0.3711-0.289-0.668-0.648-0.668z"/>
 <path id="path23" fill="#fff" d="m12 10.25c0 0.55313-0.44687 1-1 1s-1-0.44687-1-1 0.44687-1 1-1 1 0.44687 1 1z"/>
 <path id="path25" fill="#fff" d="m7 11c0 0.5528-0.44688 1-1 1s-1-0.4472-1-1 0.44688-1 1-1c0.55313 0 1 0.44687 1 1z"/>
</svg>
